X: 27084
T: Miss Kelly'
R: reel
M: 4/4
K: Gmajor
D2 DE GABd|cdBc AGE2|D2 DE GABG|AGAG ABGE|
D2 DE GABd|cdBd AGE2|D2 DE GABd|ABAB G2 (3GGG|
G2 Bd gdBd|cdBc AGEA|G2 Bd edge|dBAB G2 (3GGG|
G2 Bd gdBd|cdBc AGE2|gfed efg2|dBAB GAGE||

